X: 320
T: Bezl Eder Geh
C: Ahmet Avni Konuk
O: Turkey
F: http://compmusic.upf.edu/node/140
N: cargah--kupe--musemmen--bezl--ahmet_avni_konuk
N: makam= cargah
N: form= kupe
N: usul= musemmen = 8/8
M: 8/8
L: 1/16
K: C _2/4B _3/4d  
Q: 1/4=96
%%MIDI tuningsystem comma53
c4 c2c4d2 e4  | c4 d2dc2dc=B/A/ _2/4BcB2  | \
w:  Bezl_ e der  geh   |  bir  ni gâh_ *  *  ı   | 
c4 _2/4d2e2 f2_7/8ag gffe  | 
w:  yâ re  mâh_ *  ü   | 
eddc cdcB ABc4z2  | =d2d2 e2e4e2 ^3/4f2g2  | \
w:  câ *  *  *  nı *  nı    |  İs *  te mez  üf  | 
e2e2 =d2dc dec2 {d}c2=B2  | 
w:  tâ *  de  i  *  *  *  nâ   | 
AGA2 =B2c2 d2d2 c2c_2/4B  | A4 =B2c8z2  | |


